X:14
T:GB/7b/14 A Sailor in the North Countree
%%VWML:GB-7b-14-0
F:http://www.vwml.org/record/GB/7b/14
P:F.W. J(ekyll) & G.S.K. B(utterworth)
C:Transcribed by Simon Furey and Lewis Jones
L:1/4
M:4/4
I:linebreak $
K:Fmix
F | B2 c d | B3/2 A/ G G | F3 F | B A B c | f2 e d | c3 c |$ c B A c | f2 c/d/ e | d c B G | F E F/G/ A | B3/2 G/ e f | c3/2 B/ G G | F3 |]

